resources/icons/cisco/branchoffice.svg

<?xml version="1.0" encoding="UTF-8"?>
<svg xmlns="http://www.w3.org/2000/svg" xmlns:xlink="http://www.w3.org/1999/xlink" width="137pt" height="200pt" viewBox="0 0 137 200" version="1.1">
<g id="surface1">
<path style=" stroke:none;fill-rule:nonzero;fill:rgb(0.784314%,43.921569%,62.352941%);fill-opacity:1;" d="M 130.019531 148.746094 L 130.019531 3.292969 L 95.171875 38.347656 L 95.171875 189.875 L 130.019531 148.742188 "/>
<path style="fill:none;stroke-width:0.5;stroke-linecap:butt;stroke-linejoin:miter;stroke:rgb(100%,100%,100%);stroke-opacity:1;stroke-miterlimit:4;" d="M 31.318573 35.698125 L 31.318573 0.790312 L 22.924612 9.204375 L 22.924612 45.571875 Z M 31.318573 35.698125 " transform="matrix(4.151515,0,0,4.166667,0,0)"/>
<path style=" stroke:none;fill-rule:nonzero;fill:rgb(0.784314%,43.921569%,62.352941%);fill-opacity:1;" d="M 3.023438 189.878906 L 95.171875 189.878906 L 95.171875 38.351562 L 3.023438 38.351562 Z M 3.023438 189.878906 "/>
<path style="fill:none;stroke-width:0.5;stroke-linecap:butt;stroke-linejoin:miter;stroke:rgb(100%,100%,100%);stroke-opacity:1;stroke-miterlimit:4;" d="M 0.728273 45.571875 L 22.924612 45.571875 L 22.924612 9.204375 L 0.728273 9.204375 Z M 0.728273 45.571875 " transform="matrix(4.151515,0,0,4.166667,0,0)"/>
<path style=" stroke:none;fill-rule:nonzero;fill:rgb(0.784314%,43.921569%,62.352941%);fill-opacity:1;" d="M 95.171875 38.351562 L 130.019531 3.292969 L 47.917969 3.292969 L 3.023438 38.351562 L 95.171875 38.351562 "/>
<path style="fill:none;stroke-width:0.5;stroke-linecap:butt;stroke-linejoin:miter;stroke:rgb(100%,100%,100%);stroke-opacity:1;stroke-miterlimit:4;" d="M 22.924612 9.204375 L 31.318573 0.790312 L 11.542284 0.790312 L 0.728273 9.204375 Z M 22.924612 9.204375 " transform="matrix(4.151515,0,0,4.166667,0,0)"/>
<path style="fill:none;stroke-width:0.45;stroke-linecap:butt;stroke-linejoin:miter;stroke:rgb(100%,100%,100%);stroke-opacity:1;stroke-miterlimit:4;" d="M 7.299669 34.317187 L 7.299669 37.490625 L 10.474339 37.490625 M 6.966583 37.489687 L 10.479043 37.489687 M 2.870752 34.317187 L 2.870752 37.490625 L 6.045421 37.490625 M 2.538606 37.489687 L 6.045421 37.489687 M 7.299669 28.891875 L 7.299669 32.065312 L 10.474339 32.065312 M 6.966583 32.065312 L 10.479043 32.065312 M 2.870752 28.891875 L 2.870752 32.065312 L 6.045421 32.065312 M 2.538606 32.065312 L 6.045421 32.065312 M 7.299669 22.798125 L 7.299669 25.977187 L 10.474339 25.977187 M 6.966583 25.977187 L 10.479043 25.977187 M 2.870752 22.798125 L 2.870752 25.977187 L 6.045421 25.977187 M 2.538606 25.977187 L 6.045421 25.977187 M 7.299669 16.71 L 7.299669 19.883437 L 10.474339 19.883437 M 6.966583 19.883437 L 10.479043 19.883437 M 2.870752 16.71 L 2.870752 19.883437 L 6.045421 19.883437 M 2.538606 19.883437 L 6.045421 19.883437 M 7.299669 10.61625 L 7.299669 13.794375 L 10.474339 13.794375 M 6.966583 13.794375 L 10.479043 13.794375 M 2.870752 10.61625 L 2.870752 13.794375 L 6.045421 13.794375 M 2.538606 13.794375 L 6.045421 13.794375 M 17.142649 34.317187 L 17.142649 37.490625 L 20.322964 37.490625 M 16.811445 37.489687 L 20.322023 37.489687 M 12.714673 34.317187 L 12.714673 37.490625 L 15.889342 37.490625 M 12.381586 37.489687 L 15.889342 37.489687 M 17.142649 28.891875 L 17.142649 32.065312 L 20.322964 32.065312 M 16.811445 32.065312 L 20.322023 32.065312 M 12.714673 28.891875 L 12.714673 32.065312 L 15.889342 32.065312 M 12.381586 32.065312 L 15.889342 32.065312 M 17.142649 22.798125 L 17.142649 25.977187 L 20.322964 25.977187 M 16.811445 25.977187 L 20.322023 25.977187 M 12.714673 22.798125 L 12.714673 25.977187 L 15.889342 25.977187 M 12.381586 25.977187 L 15.889342 25.977187 M 17.142649 16.71 L 17.142649 19.883437 L 20.322964 19.883437 M 16.811445 19.883437 L 20.322023 19.883437 M 12.714673 16.71 L 12.714673 19.883437 L 15.889342 19.883437 M 12.381586 19.883437 L 15.889342 19.883437 M 17.142649 10.61625 L 17.142649 13.794375 L 20.322964 13.794375 M 16.811445 13.794375 L 20.322023 13.794375 M 12.714673 10.61625 L 12.714673 13.794375 L 15.889342 13.794375 M 12.381586 13.794375 L 15.889342 13.794375 " transform="matrix(4.151515,0,0,4.166667,0,0)"/>
</g>
</svg>

<svg xmlns="http://www.w3.org/2000/svg" viewBox="0 0 32.5 47.5" height="47.5" width="32.5"><path d="M31.319 35.699V.79l-8.394 8.413V45.57l8.394-9.872" fill="#02709f"/><path d="M31.319 35.698V.79l-8.394 8.414v36.368l8.394-9.874z" fill="none" stroke="#fff" stroke-width=".5"/><path d="M.728 45.571h22.197V9.204H.728V45.57z" fill="#02709f"/><path d="M.728 45.572h22.197V9.204H.728v36.368z" fill="none" stroke="#fff" stroke-width=".5"/><path d="M22.925 9.204L31.319.79H11.542L.728 9.204h22.197" fill="#02709f"/><path d="M22.925 9.204L31.319.79H11.542L.728 9.204h22.197z" fill="none" stroke="#fff" stroke-width=".5"/><path d="M7.3 34.317v3.174h3.174M6.967 37.49h3.512M2.871 34.317v3.174h3.174M2.539 37.49h3.506M7.3 28.892v3.173h3.174M6.967 32.065h3.512M2.871 28.892v3.173h3.174M2.539 32.065h3.506M7.3 22.798v3.179h3.174M6.967 25.977h3.512M2.871 22.798v3.179h3.174M2.539 25.977h3.506M7.3 16.71v3.173h3.174M6.967 19.883h3.512M2.871 16.71v3.173h3.174M2.539 19.883h3.506M7.3 10.616v3.178h3.174M6.967 13.794h3.512M2.871 10.616v3.178h3.174M2.539 13.794h3.506M17.143 34.317v3.174h3.18M16.811 37.49h3.511M12.715 34.317v3.174h3.174M12.382 37.49h3.507M17.143 28.892v3.173h3.18M16.811 32.065h3.511M12.715 28.892v3.173h3.174M12.382 32.065h3.507M17.143 22.798v3.179h3.18M16.811 25.977h3.511M12.715 22.798v3.179h3.174M12.382 25.977h3.507M17.143 16.71v3.173h3.18M16.811 19.883h3.511M12.715 16.71v3.173h3.174M12.382 19.883h3.507M17.143 10.616v3.178h3.18M16.811 13.794h3.511M12.715 10.616v3.178h3.174M12.382 13.794h3.507" fill="none" stroke="#fff" stroke-width=".45"/></svg>
